X: 8663
T: Crosses Of Annagh, The
R: reel
M: 4/4
K: Adorian
EAAG A2(3Bcd|eggd edBA|G3B AEGE|DGBG AGED|
EAAG A2(3Bcd|g3d edBA|GA(3Bcd gedB|1 GAAG ~A3G:|2 GAAG A2Bd||
|:eg3 a2ga|bgab gedB|d3e g3a|bgaf gefd|
eg3 a2ga|bgab gedB|GABd gedB|1 GABG A2Bd:|2 GAAG ~A3G||

